public/cloud-icons/azure/compute/container-registry-token.svg

<svg xmlns="http://www.w3.org/2000/svg" xml:space="preserve" width="56.698" height="39.69" style="font-size:12px;overflow:visible;color-interpolation-filters:sRGB;fill-rule:evenodd;stroke-linecap:square;stroke-miterlimit:3" viewBox="0 0 56.698 39.69"><g transform="translate(-5.648 -3.964)"><title>Page-1</title><g transform="translate(5.67 -34.016)"><title>Container Registry Token.12174</title><title>layer1</title><g transform="translate(14.376)"><title>path4</title><path d="M21.14 77.67a21.161 19.845-180 1 0 0-39.69 21.161 19.845-180 0 0 0 39.69" style="fill:#dd5900;stroke:none;stroke-width:2.29056001;stroke-linecap:butt"/></g><g transform="translate(12.062)"><title>path6</title><path d="M21.14 77.67a21.161 19.845-180 1 0 0-39.69 21.161 19.845-180 0 0 0 39.69" style="fill:#ff8c00;stroke:none;stroke-width:2.29056001;stroke-linecap:butt"/></g><g transform="translate(17.516 -5.12)"><title>path8</title><path d="M15.69 77.67a15.702 14.725-180 1 0 0-29.45 15.702 14.725-180 0 0 0 29.45" style="fill:#fff;stroke:none;stroke-width:2.29056001;stroke-linecap:butt"/></g><g transform="translate(22.962 -10.24)"><title>path10</title><path d="m20.48 67.79-7.53 1.24 5.29 6.05-3.9 2.59-4.09-6.87-4.06 6.87-3.93-2.59 5.3-6.05L0 67.79l1.57-4.23 7.06 2.72-.88-7.82h5.01l-.89 7.82 7.07-2.71z" style="fill:#57a300;stroke:none;stroke-width:2.29056001;stroke-linecap:butt"/></g><g transform="translate(2.314)"><title>path12</title><path d="M21.14 77.67a21.161 19.845-180 1 0 0-39.69 21.161 19.845-180 0 0 0 39.69" style="fill:#dd5900;stroke:none;stroke-width:2.29056001;stroke-linecap:butt"/></g><title>path14</title><path d="M21.14 77.67a21.161 19.845-180 1 0 0-39.69 21.161 19.845-180 0 0 0 39.69" style="fill:#ff8c00;stroke:none;stroke-width:2.29056001;stroke-linecap:butt"/><g transform="translate(.208 -5.12)"><title>path16</title><path d="M20.93 77.67c20.93 0 20.93-29.45 0-29.45S0 77.67 20.93 77.67" style="fill:#fff;stroke:none;stroke-width:2.29056001;stroke-linecap:butt"/></g><g transform="translate(10.828 -9.226)"><title>path18</title><path d="m19.85 60.83-3.36-1.77-6.57 3.68-6.56-3.68L0 60.83v3.58l6.53 3.68v7.8l3.43 1.78 3.36-1.78v-7.8l6.51-3.68z" style="fill:#57a300;stroke:none;stroke-width:2.29056001;stroke-linecap:butt"/></g><g transform="translate(.201 -.01)"><title>path20</title><path d="M20.61 38a21.159 19.843-180 0 0 0 39.67z" style="fill:#fff;fill-opacity:.3;stroke:none;stroke-width:2.29056001;stroke-linecap:butt"/></g></g></g></svg>

<?xml version="1.0" encoding="UTF-8" standalone="no"?>
<!-- Generated by Microsoft Visio, SVG Export Container Registry Token.svg Page-1 -->

<svg
   xmlns:dc="http://purl.org/dc/elements/1.1/"
   xmlns:cc="http://creativecommons.org/ns#"
   xmlns:rdf="http://www.w3.org/1999/02/22-rdf-syntax-ns#"
   xmlns:svg="http://www.w3.org/2000/svg"
   xmlns="http://www.w3.org/2000/svg"
   xmlns:sodipodi="http://sodipodi.sourceforge.net/DTD/sodipodi-0.dtd"
   xmlns:inkscape="http://www.inkscape.org/namespaces/inkscape"
   width="56.698132"
   height="39.689999"
   viewBox="0 0 56.69813 39.690001"
   xml:space="preserve"
   class="st6"
   version="1.1"
   id="svg59"
   sodipodi:docname="Container Registry Token.svg"
   style="font-size:12px;overflow:visible;color-interpolation-filters:sRGB;fill:none;fill-rule:evenodd;stroke-linecap:square;stroke-miterlimit:3"
   inkscape:version="0.92.5 (2060ec1f9f, 2020-04-08)"><metadata
   id="metadata65"><rdf:RDF><cc:Work
       rdf:about=""><dc:format>image/svg+xml</dc:format><dc:type
         rdf:resource="http://purl.org/dc/dcmitype/StillImage" /></cc:Work></rdf:RDF></metadata><defs
   id="defs63" /><sodipodi:namedview
   pagecolor="#ffffff"
   bordercolor="#666666"
   borderopacity="1"
   objecttolerance="10"
   gridtolerance="10"
   guidetolerance="10"
   inkscape:pageopacity="0"
   inkscape:pageshadow="2"
   inkscape:window-width="640"
   inkscape:window-height="480"
   id="namedview61"
   showgrid="false"
   inkscape:zoom="3.0385237"
   inkscape:cx="28.367727"
   inkscape:cy="4.8196519"
   inkscape:window-x="0"
   inkscape:window-y="0"
   inkscape:window-maximized="0"
   inkscape:current-layer="svg59" />
	<style
   type="text/css"
   id="style2">
	<![CDATA[
		.st1 {fill:#dd5900;stroke:none;stroke-linecap:butt;stroke-width:2.29056}
		.st2 {fill:#ff8c00;stroke:none;stroke-linecap:butt;stroke-width:2.29056}
		.st3 {fill:#ffffff;stroke:none;stroke-linecap:butt;stroke-width:2.29056}
		.st4 {fill:#57a300;stroke:none;stroke-linecap:butt;stroke-width:2.29056}
		.st5 {fill:#ffffff;fill-opacity:0.3;stroke:none;stroke-linecap:butt;stroke-width:2.29056}
		.st6 {fill:none;fill-rule:evenodd;font-size:12px;overflow:visible;stroke-linecap:square;stroke-miterlimit:3}
	]]>
	</style>

	<g
   id="g57"
   transform="translate(-5.6480242,-3.9643)">
		<title
   id="title4">Page-1</title>
		<g
   id="group12174-1"
   transform="translate(5.66929,-34.0157)">
			<title
   id="title6">Container Registry Token.12174</title>
			<g
   id="group12175-2">
				<title
   id="title8">layer1</title>
				<g
   id="shape12176-3"
   transform="translate(14.3756)">
					<title
   id="title10">path4</title>
					<path
   d="m 21.14,77.67 a 21.161266,19.845 -180 1 0 0,-39.69 21.161266,19.845 -180 0 0 0,39.69 z"
   class="st1"
   id="path12"
   inkscape:connector-curvature="0"
   style="fill:#dd5900;stroke:none;stroke-width:2.29056001;stroke-linecap:butt" />
				</g>
				<g
   id="shape12177-5"
   transform="translate(12.0617)">
					<title
   id="title15">path6</title>
					<path
   d="m 21.14,77.67 a 21.161266,19.845 -180 1 0 0,-39.69 21.161266,19.845 -180 0 0 0,39.69 z"
   class="st2"
   id="path17"
   inkscape:connector-curvature="0"
   style="fill:#ff8c00;stroke:none;stroke-width:2.29056001;stroke-linecap:butt" />
				</g>
				<g
   id="shape12178-7"
   transform="translate(17.5163,-5.11999)">
					<title
   id="title20">path8</title>
					<path
   d="m 15.69,77.67 a 15.701666,14.725 -180 1 0 0,-29.45 15.701666,14.725 -180 0 0 0,29.45 z"
   class="st3"
   id="path22"
   inkscape:connector-curvature="0"
   style="fill:#ffffff;stroke:none;stroke-width:2.29056001;stroke-linecap:butt" />
				</g>
				<g
   id="shape12179-9"
   transform="translate(22.9624,-10.2405)">
					<title
   id="title25">path10</title>
					<path
   d="m 20.48,67.79 -7.53,1.24 5.29,6.05 -3.9,2.59 L 10.25,70.8 6.19,77.67 2.26,75.08 7.56,69.03 0,67.79 1.57,63.56 8.63,66.28 7.75,58.46 h 5.01 l -0.89,7.82 7.07,-2.71 z"
   class="st4"
   id="path27"
   inkscape:connector-curvature="0"
   style="fill:#57a300;stroke:none;stroke-width:2.29056001;stroke-linecap:butt" />
				</g>
				<g
   id="shape12180-11"
   transform="translate(2.31392)">
					<title
   id="title30">path12</title>
					<path
   d="m 21.14,77.67 a 21.161266,19.845 -180 1 0 0,-39.69 21.161266,19.845 -180 0 0 0,39.69 z"
   class="st1"
   id="path32"
   inkscape:connector-curvature="0"
   style="fill:#dd5900;stroke:none;stroke-width:2.29056001;stroke-linecap:butt" />
				</g>
				<g
   id="shape12181-13">
					<title
   id="title35">path14</title>
					<path
   d="m 21.14,77.67 a 21.161266,19.845 -180 1 0 0,-39.69 21.161266,19.845 -180 0 0 0,39.69 z"
   class="st2"
   id="path37"
   inkscape:connector-curvature="0"
   style="fill:#ff8c00;stroke:none;stroke-width:2.29056001;stroke-linecap:butt" />
				</g>
				<g
   id="shape12182-15"
   transform="translate(0.20811,-5.11999)">
					<title
   id="title40">path16</title>
					<path
   d="m 20.93,77.67 c 20.93,0 20.93,-29.45 0,-29.45 -20.93,0 -20.93,29.45 0,29.45 z"
   class="st3"
   id="path42"
   inkscape:connector-curvature="0"
   style="fill:#ffffff;stroke:none;stroke-width:2.29056001;stroke-linecap:butt" />
				</g>
				<g
   id="shape12183-17"
   transform="translate(10.8284,-9.22616)">
					<title
   id="title45">path18</title>
					<path
   d="M 19.85,60.83 16.49,59.06 9.92,62.74 3.36,59.06 0,60.83 v 3.58 l 6.53,3.68 v 7.8 l 3.43,1.78 3.36,-1.78 v -7.8 l 6.51,-3.68 z"
   class="st4"
   id="path47"
   inkscape:connector-curvature="0"
   style="fill:#57a300;stroke:none;stroke-width:2.29056001;stroke-linecap:butt" />
				</g>
				<g
   id="shape12184-19"
   transform="translate(0.2013,-0.0101546)">
					<title
   id="title50">path20</title>
					<path
   d="m 20.61,38 a 21.1586,19.8425 -180 0 0 0,39.67 z"
   class="st5"
   id="path52"
   inkscape:connector-curvature="0"
   style="fill:#ffffff;fill-opacity:0.3;stroke:none;stroke-width:2.29056001;stroke-linecap:butt" />
				</g>
			</g>
		</g>
	</g>
</svg>
